X:30
T:Flowers of Edinburgh
R:Reel
C:Traditional
M:C
L:1/8
K:G
GE |: "G"D2DE G2GA | BGBd "C"cBAG | "D"FGFE DEFG | "D7"AFdF "C"E2GE | 
| "G"D2DE G2GA | BGBd "C"efge | "G"dcBA "D7"GFGA |1 "G"B2 G2 G2 GE :|2 "G"B2 G2 G4|| 
 d |: "G"g2g2 gbag | "D"f2f2 fagf | "C" e2ef gfed | "Em" B2e2 "C" e2ge | 
| "G"dBGB d2d2 | "C"edef "A7"g2fe | "D"dcBA GFGA |1 "G"B2 G2 G2 Bd :|2 "G"B2 G2 G4|] 
 

